X: 579
T: Tan meizi
%%abc-version 2.0
%%abcx-abcm2ps-target-version 5.9.1 (29 Sep 2008)
%%abc-creator hum2abc beta
%%abcx-conversion-date 2013/10/02 07:52:30
%%abc-edited-by Helmut Schaffrath
%%humdrum-veritas 839740167
%%humdrum-veritas-data 843878973
%%continueall 1
%%barnumbers 0
L: 1/8
M: 2/4
K: G
d2B A [I:setbarnb 1]| 
d2B A | 
GG2B | 
A4 | 
d2B A | 
d2B A | 
GG2B | 
A4 | 
B A B G | 
A2G2 |]  



